src/icons/editor/glyph/ColumnAddAfterIcon.svg

<svg width="24" height="24" viewBox="0 0 24 24" fill="none" xmlns="http://www.w3.org/2000/svg">
<path fill-rule="evenodd" clip-rule="evenodd" d="M3 5C3 3.89543 3.89543 3 5 3H9C10.1046 3 11 3.89543 11 5V19C11 20.1046 10.1046 21 9 21H5C3.89543 21 3 20.1046 3 19V5ZM15 5H19V7H21V5C21 3.89543 20.1046 3 19 3H15C13.8954 3 13 3.89543 13 5V7H15V5ZM15 19V17H13V19C13 20.1046 13.8954 21 15 21H19C20.1046 21 21 20.1046 21 19V17H19V19H15ZM16 15V13H14V11H16L16 9L18 9V11L20 11V13H18V15H16Z" fill="currentColor"/>
</svg>

<svg xmlns="http://www.w3.org/2000/svg" width="24" height="24" fill="currentColor" viewBox="0 0 24 24">
  <path fill-rule="evenodd" d="M3 5a2 2 0 0 1 2-2h4a2 2 0 0 1 2 2v14a2 2 0 0 1-2 2H5a2 2 0 0 1-2-2V5Zm12 0h4v2h2V5a2 2 0 0 0-2-2h-4a2 2 0 0 0-2 2v2h2V5Zm0 14v-2h-2v2a2 2 0 0 0 2 2h4a2 2 0 0 0 2-2v-2h-2v2h-4Zm1-4v-2h-2v-2h2V9h2v2h2v2h-2v2h-2Z" clip-rule="evenodd"/>
</svg>
